X:172
T:Jug of Punch No. 1
Z: id:dc-reel-159
M:C
L:1/8
K:D Dorian
A,DDE F3G|A2Gc Add2|A,DDE FDdB|cAGE FDEC|!
A,DDE F3G|A2Gc Adde|fdd2 dcAd|cAGE FDD2:|!
d3A c3A|d3A cAGA|d3A c3A|GEcE EDD2|!
d3A c3A|d3A cAGA|fdd2 dcAd|cAGE FDD2:|!

